X: 305540
M: 6/8
L: 1/8
K: D
d3 fdf | afa bag | afd fed | ecA A3 |\
d3 fdf | afa bag | afd efg | fdd d2 :|
|: D |\
|: d |\
gag fgf | efe gab | afd agf | gee e3 |\
gag fgf | efe gab | afd efg | fdd d2 :|


